!!!!SEGMENT: pl-wnifc--13846--030_anonim--piesni-polskie-i-ruskie-ludu-galicyjskiego-30-a-skadze-scie-wtey-sukmanie.krn
!!!kernsource:
!!!cenid: 18xx:3252
!!!COM: Anonim
!!!COM-rismID: pe30004985
!!!CDT:
!!!CNT:
!!!GTL: Pieśni polskie i ruskie ludu galicyjskiego
!!!OTL: 30. A skądze ście wtéy sukmanie
!!!OMV: 030
!!!PDT: 1833
!!!AGN:
!!!SMS-siglum: PL-Wnifc
!!!SMS-shelfmark: 13846
!!!SMS-shelfwork: 001-030 G
!!!SMS-variant:
!!!SMS-altvar:
!!!NIFC-rismSourceID: 1001036701
!!!NIFC-rismChildID: 1001036807
!!!NIFC-islandoraID: nifc:210326
!!!URL-pdf-islandora: https://repozytorium.nifc.pl/islandora/object/nifc%3A210326/datastream/PDF/view
!!!URL-scan:
!!!IIIF:
!!!ONB-nifc:
!!!OMD: Mazur.
!!!AIN: 1 piano 1 vox
!!!key: G
**kern	**kern	**dynam	**kern	**text
*part2	*part2	*part2	*part1	*part1
*staff3	*staff2	*	*staff1	*staff1
*I"Fortepian	*I"Fortepian	*	*I"Głos	*
*Ipiano	*Ipiano	*	*Ivox	*
*ICklav	*ICklav	*	*ICvox	*
*IGacmp	*IGacmp	*	*IGsolo	*
*clefF4	*clefG2	*	*clefG2	*
*k[f#]	*k[f#]	*	*k[f#]	*
*G:	*G:	*	*G:	*
*M3/8	*M3/8	*	*M3/8	*
*>[A,A,B]	*>[A,A,B]	*	*>[A,A,B]	*
=1	=1	=1	=1	=1-
*>A	*>A	*	*>A	*
!LO:TX:t=P:problem=mixed beam	!	!	!LO:TX:a:t=D.b.b.1.	!
8GG/L	16.g/LL	.	16.g/	A
.	32f#/JJk	.	32f#/	skąd-
8G\ 8B\ 8d\	(16g/LL	.	(16g/LL	-ze
.	16a/)	.	16a/JJ)	.
8G\J 8B\ 8d\	(16b\	.	(16b/LL	ście
.	16cc\JJ)	.	16cc/JJ)	.
=2	=2	=2	=2	=2
!LO:TX:t=P:problem=mixed beam	!	!	!	!
8GG/L	16dd\LL	.	16dd\	wtéy
.	16dd\JJ	.	16dd\	suk-
8G\ 8c\ 8e\	8.ee\	.	8.ee\	-ma-
8G\J 8B\ 8d\	.	.	.	.
.	16dd\	.	16dd\	-nie?
!!LO:LB:g=original
=3	=3	=3	=3	=3
!LO:TX:t=P:problem=mixed beam	!	!	!	!
8GG/L	16.dd\LL	.	16.dd\	Od
.	32b\JJk	.	32b\	Skal-
!	!	!LO:DY:rj	!	!
8G\ 8B\ 8d\	8.g\L 8.gg\	sf	8.gg\	-mie-
8G\J 8A#X\ 8c#X\ 8e\	.	.	.	.
.	16g\Jk 16b-X\ 16cc#X\ 16ee\	.	16ee\	-za
=4	=4	=4	=4	=4
8G\L 8B\ 8d\	16g\LL 16bn\ 16dd\	.	16dd\	Mo-
.	16g\JJ 16b\ 16dd\	.	16dd\	-ści
8G\ 8cn\ 8e\	8g\L 8cc\ 8ee\	.	8ee\	Pa-
8G\J 8B\ 8d\	8g\J 8b\ 8dd\	.	8dd\	-nie.
!!LO:PB:g=original
=5	=5	=5	=5	=5
!LO:TX:t=P:problem=mixed beam	!	!	!	!
8GG/L	16.g\LL 16.dd\	.	16.dd\	od
.	32g\JJk 32b\	.	32b\	Skal-
8G\ 8B\ 8d\	8.g\L 8.gg\	.	8.gg\	-mie-
8G\J 8A#X\ 8c#X\ 8e\	.	.	.	.
.	16g\Jk 16b-X\ 16cc#X\ 16ee\	.	16ee\	-za
=6	=6	=6	=6	=6
8G\L 8B\ 8d\	16b\LL 16dd\	.	16dd\	Mo-
.	16b\JJ 16dd\	.	16dd\	-ści
8G\ 8cn\ 8e\	8cc\L 8ee\	.	8ee\	Pa-
8G\J 8B\ 8d\	8b\J 8dd\	.	8dd\	-nie.
=7:|!	=7:|!	=7:|!	=7:|!	=7:|!
*>B	*>B	*	*>B	*
(<8DD/	16.cc\LL	.	16.cc\	Cy
.	32b\JJk	.	32b\	nie
!!LO:LB:g=original
=-	=-	=-	=-	=-
8D\L) 8F#\ 8c\	8a\L	.	8a\	zna-
8D\J 8F#\ 8c\	8dd\J	.	8dd\	-cie
=8	=8	=8	=8	=8
!LO:TX:t=P:problem=mixed beam	!	!	!	!
8GG/L	16.g/LL	.	16.b\	Przy-
.	32a/JJk	.	32a/	-by-
8D\ 8G\ 8B\	8b\L	.	8b/	-li-
8D\J 8G\ 8B\	8dd\J	.	8dd\	-cy,
=9	=9	=9	=9	=9
!LO:TX:t=P:problem=mixed beam	!	!	!	!
8DD/L	16.cc\LL	.	16.cc\	wska
.	32b\JJk	.	32b\	ze
8D\ 8F#\ 8c\	8a\L	.	8a/	w_wa-
8D\J 8F#\ 8c\	8dd\J	.	8dd\	-sej
!!LO:LB:g=original
=10	=10	=10	=10	=10
!LO:TX:t=P:problem=mixed beam	!	!	!	!
8GG/L	16.g/LL	.	16.g/	o-
.	32a/JJk	.	32a/	-ko-
8D\ 8G\ 8B\	8b\L	.	8b/	-li-
8D\J 8G\ 8B\	8g\J	.	8g/	-cy,
=11	=11	=11	=11	=11
!LO:TX:t=P:problem=mixed beam	!	!	!	!
8DD/L	16.cc\LL	.	16.cc\	zna-
.	32b\JJk	.	32b/	-cie
8D\ 8F#\ 8c\	8a\L	.	8a/	w_Pzy-
8D\J 8F#\ 8c\	8dd\J	.	8dd/	-by-
=12	=12	=12	=12	=12
(<8GG/	16.g\LL	.	16.g/	-li-
.	32a\JJk	.	32a/	-cy
!!LO:LB:g=original
=-	=-	=-	=-	=-
8D\L) 8G\ 8B\	8b\L	.	8b\	pa-
8D\J 8G\ 8B\	8dd\J	.	8dd\	-na?
=13	=13	=13	=13	=13
!LO:TX:t=P:problem=mixed beam	!	!	!	!
8DD/L	16cc\LL	.	16cc\	Któz-
.	16b\JJ	.	16b\	-by
8D\ 8F#\ 8c\	8a\L	.	8a/	go
8D\J 8F#\ 8c\	8dd\J	.	8dd\	nie-
=14	=14	=14	=14	=14
8GG/	16g/LL	.	16g/	-znał,
.	16a/JJ	.	16a/	oj
8D\L 8G\ 8B\	8b/L	.	8b/	da-
8D\J 8G\ 8B\	8g/J	.	8g/	-na!
!!LO:LB:g=original
==	==	==	==	==
*-	*-	*-	*-	*-
!!!system-decoration: s1,{(s2,s3)}
!!!RDF**kern: < = below
!!!RDF**kern: > = above
!!!ENC: Marta Chmielewska
!!!END: 2021-11-10
!!!YEC: Copyright 2022 Narodowy Instytut Fryderyka Chopina (https://polishscores.org)
!!!YEM: License CC-BY-4.0 (https://creativecommons.org/licenses/by/4.0)
